src/lib/packages/icons/src/assets/line/globe-stand.svg

<svg width="24" height="24" viewBox="0 0 24 24" fill="none" xmlns="http://www.w3.org/2000/svg">
<path d="M12.75 18.724V20.25H16C16.414 20.25 16.75 20.586 16.75 21C16.75 21.414 16.414 21.75 16 21.75H8.00002C7.58602 21.75 7.25002 21.414 7.25002 21C7.25002 20.586 7.58602 20.25 8.00002 20.25H11.25V18.6961C9.31102 18.4981 7.49909 17.718 6.01809 16.434L4.53103 17.921C4.23803 18.214 3.76299 18.214 3.46999 17.921C3.17699 17.628 3.17699 17.153 3.46999 16.86L5.46999 14.86C5.61099 14.719 5.80102 14.64 6.00002 14.64C6.00102 14.64 6.00198 14.64 6.00198 14.64C6.20198 14.64 6.39398 14.7211 6.53298 14.8631C8.05398 16.4021 10.077 17.25 12.23 17.25C16.652 17.25 20.25 13.657 20.25 9.24001C20.25 7.09001 19.4011 5.063 17.8611 3.532C17.5671 3.24 17.565 2.76496 17.857 2.47096C18.15 2.17696 18.627 2.17703 18.918 2.46803C20.744 4.28203 21.75 6.68801 21.75 9.24001C21.75 14.309 17.757 18.452 12.75 18.724ZM5.75002 9.25002C5.75002 5.80402 8.55402 3.00002 12 3.00002C15.446 3.00002 18.25 5.80402 18.25 9.25002C18.25 12.696 15.446 15.5 12 15.5C8.55402 15.5 5.75002 12.696 5.75002 9.25002ZM7.25002 9.25002C7.25002 11.869 9.38102 14 12 14C14.619 14 16.75 11.869 16.75 9.25002C16.75 6.63102 14.619 4.50002 12 4.50002C9.38102 4.50002 7.25002 6.63102 7.25002 9.25002Z" fill="currentColor"/>
</svg>

<svg xmlns="http://www.w3.org/2000/svg" width="24" height="24" fill="none"><path fill="currentColor" d="M12.75 18.724v1.526H16a.75.75 0 0 1 0 1.5H8a.75.75 0 0 1 0-1.5h3.25v-1.554a9.41 9.41 0 0 1-5.232-2.262l-1.487 1.487A.75.75 0 0 1 3.47 16.86l2-2a.749.749 0 0 1 .53-.22h.002c.2 0 .392.081.531.223a7.956 7.956 0 0 0 5.697 2.387c4.422 0 8.02-3.593 8.02-8.01 0-2.15-.849-4.177-2.389-5.708a.75.75 0 1 1 1.057-1.064A9.489 9.489 0 0 1 21.75 9.24c0 5.069-3.993 9.212-9 9.484Zm-7-9.474A6.257 6.257 0 0 1 12 3a6.257 6.257 0 0 1 6.25 6.25A6.257 6.257 0 0 1 12 15.5a6.257 6.257 0 0 1-6.25-6.25Zm1.5 0A4.756 4.756 0 0 0 12 14a4.756 4.756 0 0 0 4.75-4.75A4.756 4.756 0 0 0 12 4.5a4.756 4.756 0 0 0-4.75 4.75Z"/></svg>
